!!!COM:	de Orto, Marbrianus
!!!CDT:	~1460///-1529//
!!!OPR:	Missa [Ad fugam]
!!!ONM:	1
!!!OTL:	Kyrie
!!!AGN:	Mass; Kyrie
!!!SCT:	Ort1006a
!!!SCA:	Ort1006a
!!!voices-OPR:	4
!!!voices:	4
**kern	**text	**kern	**text	**kern	**text	**kern	**text
*staff4	*staff4	*staff3	*staff3	*staff2	*staff2	*staff1	*staff1
*Ivox	*	*Ivox	*	*Ivox	*	*Ivox	*
*I"Bassus	*	*I"Tenor	*	*I"Altus	*	*I"Superius	*
*I'B	*	*I'T	*	*I'A	*	*I'S	*
*>[A,B,C]	*>[A,B,C]	*>[A,B,C]	*>[A,B,C]	*>[A,B,C]	*>[A,B,C]	*>[A,B,C]	*>[A,B,C]
*>A	*>A	*>A	*>A	*>A	*>A	*>A	*>A
*clefF4	*	*clefGv2	*	*clefGv2	*	*clefG2	*
*k[b-]	*	*k[b-e-]	*	*k[b-]	*	*k[b-]	*
*M3/1	*	*M3/1	*	*M3/1	*	*M3/1	*
*met(O)	*	*met(O)	*	*met(O)	*	*met(O)	*
=1-	=1-	=1-	=1-	=1-	=1-	=1-	=1-
!	!	!LO:TX:Z=8:t=(Tenor flat signature is editorial.)	!	!	!	!LO:TX:Z=8:t=Canon at the lower fifth (one breve)	!
1.G	Ky-	0.r	.	2.G/	Ky-	0g	Ky-
.	.	.	.	4A/	.	.	.
.	.	.	.	2B-\	.	.	.
2C/	-ri-	.	.	2c\	-ri-	.	.
1G	-e	.	.	1d	-e	1b-	.
=2	=2	=2	=2	=2	=2	=2	=2
2F\	e-	0c	Ky-	2r	.	2a/	-ri-
2E\	.	.	.	1c	e-	2g/	.
1F	-le-	.	.	.	.	1a	-e
.	.	.	.	2A/	.	.	.
1C	.	1e-	.	1c	.	1g	.
=3	=3	=3	=3	=3	=3	=3	=3
2BB-/	.	2d\	-ri-	2G/	-le-	2r	.
2AA/	.	2c\	.	2c\	.	1a	e-
1D	.	1d	-e	0A	.	.	.
.	.	.	.	.	.	2f/	.
1AA	.	1c	.	.	.	1e	.
=4	=4	=4	=4	=4	=4	=4	=4
1.BB-	.	2r	.	2F/	.	2.d/	-le-
.	.	1d	e-	2.B-\	.	.	.
.	.	.	.	.	.	4e/	.
.	.	.	.	.	.	2f/	.
.	.	.	.	4c\	.	.	.
2GG/	-i-	2B-\	.	1d	.	1g	.
1D	-son,	1A	.	.	.	.	.
.	.	.	.	2d\	.	2f#i/	-i-
=5	=5	=5	=5	=5	=5	=5	=5
2r	.	2.G/	-le-	2B-\	.	1g	-son,
1G	Ky-	.	.	2.d\	.	.	.
.	.	4A/	.	.	.	.	.
.	.	2B-\	.	.	.	1r	.
.	.	.	.	4e\	.	.	.
2F\	.	1c	.	1f	.	.	.
1G	.	.	.	.	.	1r	.
.	.	2B-\	-i-	2e\	.	.	.
=6	=6	=6	=6	=6	=6	=6	=6
0F	.	1c	-son,	1.f	.	0a	Ky-
.	.	1r	.	.	.	.	.
.	.	.	.	2d\	.	.	.
1C	-ri-	1r	.	1e	-i-	1cc	-ri-
=7	=7	=7	=7	=7	=7	=7	=7
1G	-e	0d	Ky-	1d	-son,	1b-	-e,
1F	.	.	.	1f	.	0a	.
1D	.	1f	-ri-	2r	.	.	.
.	.	.	.	2F/	Ky-	.	.
=8	=8	=8	=8	=8	=8	=8	=8
2r	.	1e-	-e	1c	.	2.g/	e-
2C/	e-	.	.	.	.	.	.
.	.	.	.	.	.	4a/	.
2GG/	.	0d	.	1d	-ri-	2b-\	-lei-
1D	-le-	.	.	.	.	1a	.
.	.	.	.	[1A	-e	.	.
2D\	.	.	.	.	.	4g/	.
.	.	.	.	.	.	4f/	.
=9	=9	=9	=9	=9	=9	=9	=9
2.AA/	.	2.c\	e-	2A/]	.	1e	-son,
.	.	.	.	2c\	e-	.	.
4BB-/	.	4d\	.	.	.	.	.
2C/	.	2e-\	-lei-	2.G/	-lei-	1r	.
2BB-/	.	1d	.	.	.	.	.
.	.	.	.	4A/	.	.	.
1GG	-i-	.	.	2B-\	.	1r	.
.	.	4c\	.	4A/	.	.	.
.	.	4B-\	.	4G/	.	.	.
=10	=10	=10	=10	=10	=10	=10	=10
0.D	-son,	1A	-son,	2.F/	.	2r	.
.	.	.	.	.	.	2d/	Ky-
.	.	.	.	4D/	.	.	.
.	.	1r	.	2.d\	.	1f	.
.	.	.	.	8c\L	.	.	.
.	.	.	.	8B-\J	.	.	.
.	.	1r	.	2A/	.	1f	-ri-
.	.	.	.	2d\	.	.	.
=11	=11	=11	=11	=11	=11	=11	=11
1r	.	2r	.	2G/	.	2g/	-e-
.	.	2G/	Ky-	2B-\	.	2d/	.
1E-	Ky-	1B-	.	4G/	.	2r	.
.	.	.	.	4A/	.	.	.
.	.	.	.	4B-\	.	1g	-e-
.	.	.	.	4G/	.	.	.
1D	-ri-	1B-	-ri-	2d\	-son,	.	.
.	.	.	.	2r	.	2f/	.
=12	=12	=12	=12	=12	=12	=12	=12
1C	-e	2c\	-e-	1G	Ky-	2.e/	-le-
.	.	2G/	.	.	.	.	.
.	.	.	.	.	.	4f/	.
1r	.	2r	.	2E/	.	4g/	.
.	.	.	.	.	.	4e/	.
.	.	1c	-e-	2F/	.	2a/	-i-
2r	.	.	.	2E/	.	1g	-son,
2G\	e-	2B-\	.	2G/	.	.	.
=13	=13	=13	=13	=13	=13	=13	=13
2F\	-le-	2.A/	-le-	2c\	.	2r	.
2D\	.	.	.	2d\	.	1a	Ky-
.	.	4B-\	.	.	.	.	.
2F\	.	4c\	.	2A/	.	.	.
.	.	4A/	.	.	.	.	.
2BB-/	.	2d\	-i-	2B-\	-ri-	2d/	.
2C/	.	1c	-son,	1G	-e	2e/	.
2E-i\	.	.	.	.	.	2g/	.
=14	=14	=14	=14	=14	=14	=14	=14
2D\	.	2r	.	2A/	e-	2.f/	.
2BB-/	.	1d	e-	1.B-	-le-	.	.
.	.	.	.	.	.	4e/	.
2D\	.	.	.	.	.	2f/	.
2E-i\	.	2G/	.	.	.	2g/	-ri-
1C	.	2A/	.	1c	.	1e	-e
.	.	2c\	.	.	.	.	.
=15	=15	=15	=15	=15	=15	=15	=15
1GG	.	2.B-\	-le-	2d\	.	2d/	e-
.	.	.	.	1g	.	2.b-\	-le-
.	.	4A/	.	.	.	.	.
2G\	.	2B-\	.	.	.	.	.
.	.	.	.	.	.	4g/	.
2C/	.	2c\	.	2e\	-i-	1g	.
1D	-i-	1A	-i-	[1dl	-son.	.	.
.	.	.	.	.	.	2f#i/	-i-
=16	=16	=16	=16	=16	=16	=16	=16
0.GGl	-son.	0.Gl	-son.	0.d]	.	0.gl	-son.
!!LO:LB:i:g=z
=17||	=17||	=17||	=17||	=17||	=17||	=17||	=17||
*>B	*>B	*>B	*>B	*>B	*>B	*>B	*>B
*clefF4	*	*clefGv2	*	*clefGv2	*	*clefG2	*
*k[b-e-]	*	*k[b-e-]	*	*k[b-]	*	*k[b-]	*
*M2/1	*	*M2/1	*	*M2/1	*	*M2/1	*
*met(C|)	*	*met(C|)	*	*met(C|)	*	*met(C|)	*
!	!	!	!	!	!	!LO:TX:Z=8:t=Canon at the lower fifth (two breves)	!
0G	Chri-	0r	.	1.B-	Chri-	0r	.
.	.	.	.	4A/	.	.	.
.	.	.	.	4G/	.	.	.
=18	=18	=18	=18	=18	=18	=18	=18
1D	-ste	0r	.	2B-\	.	0r	.
.	.	.	.	4A/	.	.	.
.	.	.	.	4G/	.	.	.
1D	e-	.	.	1F	-ste,	.	.
=19	=19	=19	=19	=19	=19	=19	=19
1.E-	-le-	0r	.	2r	.	0r	.
.	.	.	.	1g	Chri-	.	.
4D\	.	.	.	4f\	.	.	.
4C/	.	.	.	4e\	.	.	.
=20	=20	=20	=20	=20	=20	=20	=20
2E-\	.	0r	.	2g\	.	0r	.
4D\	.	.	.	4f\	.	.	.
4C/	.	.	.	4e\	.	.	.
1BB-	-i-	.	.	1d	-ste,	.	.
=21	=21	=21	=21	=21	=21	=21	=21
0GG	-son,	0r	.	2r	.	1.b-	Chri-
.	.	.	.	1d	Chri-	.	.
.	.	.	.	4c\	.	4a/	.
.	.	.	.	4B-\	.	4g/	.
=22	=22	=22	=22	=22	=22	=22	=22
0r	.	0r	.	2d\	.	2b-\	.
.	.	.	.	4c\	.	4a/	.
.	.	.	.	4B-\	.	4g/	.
.	.	.	.	2A/	-ste,	1f	.
.	.	.	.	2d\	e-	.	.
=23	=23	=23	=23	=23	=23	=23	=23
0r	.	1.e-	Chri-	1.c	-lei-	1g	-ste
.	.	.	.	.	.	2c/	e-
.	.	4d\	.	4B-\	.	[2g/	-le-
.	.	4c\	.	4A/	.	.	.
=24	=24	=24	=24	=24	=24	=24	=24
0r	.	2e-\	.	0G	-son,	2g/]	.
.	.	4d\	.	.	.	4f/	.
.	.	4c\	.	.	.	4e/	.
.	.	1B-	.	.	.	1d	-i-
=25	=25	=25	=25	=25	=25	=25	=25
0r	.	1c	-ste	1g	Chri-	1c	-son,
.	.	2F/	e-	2f\	.	2r	.
.	.	[2c\	-le-	2e\	.	2g/	Chri-
=26	=26	=26	=26	=26	=26	=26	=26
1r	.	2c\]	.	1c	-ste	2a/	.
.	.	4B-\	.	.	.	1cc	.
.	.	4A/	.	.	.	.	.
1G	Chri-	1G	-i-	1d	.	.	.
.	.	.	.	.	.	2b-\	.
=27	=27	=27	=27	=27	=27	=27	=27
2A\	.	1F	-son,	2r	.	1cc	-ste,
2.c\	.	.	.	2A/	e-	.	.
.	.	2r	.	2.c\	-le-	1r	.
4B-\	.	.	.	.	.	.	.
4A\	.	2c\	Chri-	.	.	.	.
4G\	.	.	.	4B-\	.	.	.
=28	=28	=28	=28	=28	=28	=28	=28
2F\	.	2d\	.	4A/	.	0r	.
.	.	.	.	4G/	.	.	.
4E-\	.	1f	.	2F/	.	.	.
4D\	.	.	.	.	.	.	.
1C	.	.	.	2.G/	.	.	.
.	.	2e-\	.	.	.	.	.
.	.	.	.	4A/	.	.	.
=29	=29	=29	=29	=29	=29	=29	=29
1BB-	-ste,	1f	-ste,	1B-	.	1r	.
1D	Chri-	1r	.	2A/	.	1f	Chri-
.	.	.	.	[2B-\	.	.	.
=30	=30	=30	=30	=30	=30	=30	=30
1E-	.	0r	.	2B-\]	.	1g	.
.	.	.	.	2c\	.	.	.
2F\	.	.	.	2A/	.	2a/	.
[2E-\	.	.	.	2B-\	-i-	[2g/	.
=31	=31	=31	=31	=31	=31	=31	=31
2E-\]	.	1r	.	1c	-son,	2g/]	.
2C/	.	.	.	.	.	2e/	.
2D\	.	1B-	Chri-	2r	.	2f/	.
2E-\	.	.	.	[2G/	Chri-	2g/	.
=32	=32	=32	=32	=32	=32	=32	=32
1C	-ste	1c	.	2G/]	.	1e	-ste,
.	.	.	.	2A/	.	.	.
2BB-/	e-	2d\	.	2B-\	.	1r	.
[2F\	-lei-	[2c\	.	[2A/	.	.	.
=33	=33	=33	=33	=33	=33	=33	=33
4F\]	.	2c\]	.	2A/]	.	1a	Chri-
4E-\	.	.	.	.	.	.	.
2F\	.	2A/	.	2.d\	.	.	.
2G\	.	2B-\	.	.	.	2g/	.
.	.	.	.	4e\	.	.	.
[2F\	.	2c\	.	[2f\	.	[2a/	.
=34	=34	=34	=34	=34	=34	=34	=34
2F\]	.	1A	-ste,	2f\]	.	2a/]	.
2F\	.	.	.	2f\	.	2cc\	.
2G\	.	1r	.	2d\	.	2b-\	.
4F\	.	.	.	2G/	.	4a/	.
4E-\	.	.	.	.	.	4g/	.
=35	=35	=35	=35	=35	=35	=35	=35
1D	-son,	1d	Chri-	2.A/	.	1f	-ste,
.	.	.	.	4G/	.	.	.
2r	.	2c\	.	2A/	.	1r	.
2G\	Chri-	[2d\	.	2B-\	.	.	.
=36	=36	=36	=36	=36	=36	=36	=36
1F	.	2d\]	.	2A/	.	0r	.
.	.	2f\	.	2c\	.	.	.
2G\	.	2e-\	.	2B-\	.	.	.
4F\	.	4d\	.	4A/	.	.	.
4E-\	.	4c\	.	4G/	.	.	.
=37	=37	=37	=37	=37	=37	=37	=37
1D	-ste	1B-	-ste,	1F	-ste	0r	.
1C	e-	1r	.	2G/	e-	.	.
.	.	.	.	[2A/	-le-	.	.
=38	=38	=38	=38	=38	=38	=38	=38
2D\	-le-	0r	.	4A/]	.	0r	.
.	.	.	.	4G/	.	.	.
2F\	.	.	.	4A/	.	.	.
.	.	.	.	4B-\	.	.	.
2E-\	.	.	.	2c\	.	.	.
[2D\	.	.	.	[2B-\	.	.	.
=39	=39	=39	=39	=39	=39	=39	=39
2D\]	.	0r	.	2B-\]	.	1r	.
4C/	.	.	.	1G	.	.	.
4BB-/	.	.	.	.	.	.	.
1AA	-i-	.	.	.	.	2r	.
.	.	.	.	2F#i/	-i-	2c/	Chri-
=40	=40	=40	=40	=40	=40	=40	=40
2GG/	-son,	0r	.	2G/	-son,	2d/	.
2D\	Chri-	.	.	1A	e-	2f/	.
2C/	.	.	.	.	.	2e/	.
[2BB-/	.	.	.	[2B-\	-lei-	[2d/	.
=41	=41	=41	=41	=41	=41	=41	=41
2BB-/]	.	1r	.	2B-\]	.	2d/]	.
2C/	.	.	.	1G	.	4c/	.
.	.	.	.	.	.	4B-/	.
1D	.	2r	.	.	.	1A	-ste
.	.	2F/	e-	2d\	.	.	.
=42	=42	=42	=42	=42	=42	=42	=42
1GG	-ste	2G/	-le-	2B-\	.	2r	.
.	.	2B-\	.	2G/	.	4d/	e-
.	.	.	.	.	.	4e/	.
2r	.	2A/	.	2F/	.	4f/	.
.	.	.	.	.	.	4g/	.
2C/	e-	[2G/	.	4G/	.	2e/	.
.	.	.	.	4A/	.	.	.
=43	=43	=43	=43	=43	=43	=43	=43
1G	-le-	2G/]	.	4B-\	.	2d/	-le-
.	.	.	.	4c\	.	.	.
.	.	4F/	.	[1.dl	-son.	1g	.
.	.	4E-/	.	.	.	.	.
1A	-i-	1D	-i-	.	.	.	.
.	.	.	.	.	.	2f#i/	-i-
=44	=44	=44	=44	=44	=44	=44	=44
0Gl	-son.	2r	.	0d]	.	0gl	-son.
.	.	1.Gl	-son.	.	.	.	.
!!LO:LB:i:g=z
=45||	=45||	=45||	=45||	=45||	=45||	=45||	=45||
*>C	*>C	*>C	*>C	*>C	*>C	*>C	*>C
*clefF4	*	*clefGv2	*	*clefGv2	*	*clefG2	*
*k[b-]	*	*k[b-e-]	*	*k[b-]	*	*k[b-]	*
*M3/1	*	*M3/1	*	*M3/1	*	*M3/1	*
*met(O)	*	*met(O)	*	*met(O)	*	*met(O)	*
!	!	!	!	!	!	!LO:TX:Z=8:t=Canon at the lower fifth (one breve)	!
2.D\	Ky-	0.r	.	1d	Ky-	0.r	.
4E\	.	.	.	.	.	.	.
2F\	.	.	.	2A/	.	.	.
2G\	.	.	.	2d\	.	.	.
1A	.	.	.	1c	.	.	.
=46	=46	=46	=46	=46	=46	=46	=46
1B-	.	0.r	.	2B-\	.	2.d/	Ky-
.	.	.	.	1f	.	.	.
.	.	.	.	.	.	4e/	.
2A\	.	.	.	.	.	2f/	.
1G	.	.	.	2B-\	.	2g/	.
.	.	.	.	1c	-ri-	1a	-ri-
2F\	-ri-	.	.	.	.	.	.
=47	=47	=47	=47	=47	=47	=47	=47
2G\	-e	2.G/	Ky-	1B-	-e	1b-	-e
1E-	e-	.	.	.	.	.	.
.	.	4A/	.	.	.	.	.
.	.	2B-\	.	1e-i	.	1g	.
1C	.	2c\	.	.	.	.	.
.	.	1d	-ri-	1f	e-	2r	.
2BB-/	.	.	.	.	.	2d/	e-
=48	=48	=48	=48	=48	=48	=48	=48
2.C/	-le-	1e-	-e	2e-i\	-le-	2.g/	-le-
.	.	.	.	2c\	.	.	.
4D\	.	.	.	.	.	4f/	.
2E\	.	1c	.	2G/	.	2g/	.
2F\	.	.	.	2c\	.	2a/	.
2D\	.	2r	.	2B-\	.	2f/	-i-
[2C/	.	2G/	e-	2c\	-i-	2g/	-son,
=49	=49	=49	=49	=49	=49	=49	=49
4C/]	.	2.c\	-le-	1G	-son,	2r	.
4D\	.	.	.	.	.	.	.
2E\	.	.	.	.	.	2g/	e-
.	.	4B-\	.	.	.	.	.
2F\	-i-	2c\	.	1r	.	2a/	-le-
2D\	-son,	2d\	.	.	.	2f/	.
2r	.	2B-\	-i-	1G	Ky-	1g	.
2C/	Ky-	2c\	-son,	.	.	.	.
=50	=50	=50	=50	=50	=50	=50	=50
1AA	.	2r	.	2A/	.	1cc	.
.	.	2c\	e-	2F/	-ri-	.	.
2GG/	.	2d\	-le-	1G	-e,	1b-	-i-
2G\	.	2B-\	.	.	.	.	.
2.F\	.	1c	.	2r	.	1a	-son,
.	.	.	.	2c\	Ky-	.	.
4E\	.	.	.	.	.	.	.
=51	=51	=51	=51	=51	=51	=51	=51
1D	.	1f	.	2d\	.	1r	.
.	.	.	.	2B-\	.	.	.
1C	-ri-	1e-	-i-	1c	.	1g	Ky-
1G	-e	1d	-son,	2B-\	.	1g	-ri-
.	.	.	.	2G/	.	.	.
=52	=52	=52	=52	=52	=52	=52	=52
1D	.	1r	.	1A	-ri-	1f	.
2r	.	1c	Ky-	2G/	-e-	2g/	-e
2C/	e-	.	.	2.A/	-le-	2e/	.
2F\	-le-	1c	-ri-	.	.	2f/	.
.	.	.	.	4B-\	.	.	.
2C/	.	.	.	2c\	.	2g/	.
=53	=53	=53	=53	=53	=53	=53	=53
1G	-i-	1B-	.	2d\	.	1d	e-
.	.	.	.	1G	.	.	.
1C	-son,	2c\	-e	.	.	2g/	-le-
.	.	2A/	.	2c\	.	4f/	.
.	.	.	.	.	.	4e/	.
1r	.	2B-\	.	2G/	.	2d/	.
.	.	2c\	.	2A/	.	2c/	-i-
=54	=54	=54	=54	=54	=54	=54	=54
1r	.	1G	e-	1B-	-i-	1d	-son,
1.C	Ky-	2c\	-le-	1c	-son,	2r	.
.	.	4B-\	.	.	.	1e	Ky-
.	.	4A/	.	.	.	.	.
.	.	2G/	.	1r	.	.	.
2D\	.	2F/	-i-	.	.	[2d/	.
=55	=55	=55	=55	=55	=55	=55	=55
1E-i	.	1G	-son,	2r	.	2d/]	.
.	.	.	.	2G/	Ky-	2c/	-ri-
1D	.	2r	.	2A/	.	1d	-e,
.	.	1A	Ky-	2F/	.	.	.
1GG	-ri-	.	.	2G/	.	1r	.
.	.	[2G/	.	[2D/	.	.	.
=56	=56	=56	=56	=56	=56	=56	=56
1AA	-e	2G/]	.	2D/]	.	1c	Ky-
.	.	2F#i/	-ri-	2C/	-ri-	.	.
2GG/	e-	1G	-e,	2D/	-e,	2.B-/	.
2.G\	-le-	.	.	2r	.	.	.
.	.	.	.	.	.	4c/	.
.	.	1r	.	1d	Ky-	4d/	.
4F\	.	.	.	.	.	4e/	.
[2D\	.	.	.	.	.	[2f/	.
=57	=57	=57	=57	=57	=57	=57	=57
4D\]	.	1F	Ky-	1f	.	4f/]	.
4E\	.	.	.	.	.	4g/	.
2F\	.	.	.	.	.	2a/	.
2.G\	.	2.E-/	.	1B-	.	2.b-\	.
4F\	.	4F/	.	.	.	4a/	.
2E\	.	4G/	.	2c\	.	2g/	-ri-
.	.	4A/	.	.	.	.	.
2D\	.	[2B-\	.	2d\	.	2f/	-e
=58	=58	=58	=58	=58	=58	=58	=58
2E\	.	4B-\]	.	2G/	-ri-	2r	.
.	.	4c\	.	.	.	.	.
2D\	-i-	2d\	.	2A/	-e	2f/	e-
1C	-son,	2.e-\	.	1r	.	2.cc\	-lei-
.	.	4d\	.	.	.	4b-\	.
2r	.	2c\	-ri-	2F/	Ky-	2a/	.
2E-\	Ky-	2B-\	-e	[2G/	.	2g/	.
=59	=59	=59	=59	=59	=59	=59	=59
1G	.	2r	.	2G/]	.	1b-	.
.	.	2B-\	e-	1d	.	.	.
1D	.	2.f\	-le-	.	.	0a	.
.	.	.	.	2d\	-ri-	.	.
.	.	4e-\	.	.	.	.	.
1F	.	2d\	.	1A	-e-	.	.
.	.	2c\	.	.	.	.	.
=60	=60	=60	=60	=60	=60	=60	=60
1C	.	1e-	.	1c	-le-	2.g/	.
.	.	.	.	.	.	4a/	.
2BB-/	-ri-	0d	.	2.F/	.	2b-\	.
1D	-e	.	.	.	.	1a	.
.	.	.	.	4G/	.	.	.
.	.	.	.	[1A	.	.	.
2D\	e-	.	.	.	.	4g/	.
.	.	.	.	.	.	4f/	.
=61	=61	=61	=61	=61	=61	=61	=61
2.AA/	-le-	2.c\	.	2A/]	.	1e	-son,
.	.	.	.	1c	.	.	.
4BB-/	.	4d\	.	.	.	.	.
2C/	.	2e-\	.	.	.	2r	.
2D\	.	1d	.	2A/	.	2.a/	e-
1GG	.	.	.	2B-\	-i-	.	.
.	.	.	.	.	.	4g/	.
.	.	4c\	.	[2d\l	-son.	[2g/	-le-
.	.	4B-\	.	.	.	.	.
=62	=62	=62	=62	=62	=62	=62	=62
1D	-i-	1A	-i-	0.d]	.	2g/]	.
.	.	.	.	.	.	2f#i/	-i-
0GGl	-son.	0Gl	-son.	.	.	0gl	-son.
==	==	==	==	==	==	==	==
*-	*-	*-	*-	*-	*-	*-	*-
!!!RDF**kern: l=long note in original notation
!!!RDF**kern: i=editorial accidental
!!!ENC:	Jesse Rodin 8/7/2013
!!!END:	2013/08/09/
!!!EED:	Jesse Rodin
!!!EEV:	2013/08/11/
!!!ONB:	Translated from MusicXML and edited on 2013/08/11/ by Craig Sapp
!!muse2ps: T^@{OPR}^u^@{ONM}{. }@{OTL}^C^@{COM}^i2I150v85,85,85,130c180
